X:1
T:Culbach, 77.77
T:Culbach, 77.77
T:Johann Scheffler, 1657
T:Public Domain Courtesy of the Cyber Hymnal™
C:Johann Scheffler, 1657
Z:Public Domain
Z:Courtesy of the Cyber Hymnal™
%%score ( 1 2 ) ( 3 4 )
L:1/8
Q:1/4=110
M:4/4
K:D
V:1 treble 
V:2 treble 
V:3 bass 
V:4 bass 
V:1
 [A,D]2 [DF]2 [EA]2 [CA]2 | [DG]2 [A,A]2 [DF]4 | [Dd]2 [Ed]2 [Ec]2 [Ec]2 | [FB]2 B2 [CA]4 | %4
 [FA]2 [Ec]2 [Dd]2 [DA]2 | [DB]2 [CA]2 [DF]4 | [DA]2 [CA]2 [DG]2 [DF]2 | [DE]2 [CE]2 D4 |] %8
V:2
 x8 | x8 | x8 | x2 (ED) x4 | x8 | x8 | x8 | x4 D4 |] %8
V:3
 [D,F,]2 [D,A,]2 [C,A,]2 [A,,A,]2 | [B,,D,]2 [C,E,]2 [D,F,]4 | %2
 [B,,F,]2 [^G,,B,]2 [A,,A,]2 [C,A,]2 | [D,A,]2 [E,^G,]2 [A,,A,]4 | %4
 [D,A,]2 [C,^A,]2 [B,,B,]2 [D,F,]2 | [G,,G,]2 [A,,E,]2 [D,F,]4 | %6
 [D,F,]2 [A,,E,]2 [B,,G,]2 [D,A,]2 | [G,,B,]2 (A,G,) [D,F,]4 |] %8
V:4
 x8 | x8 | x8 | x8 | x8 | x8 | x8 | x2 A,,2 x4 |] %8

